src/icons/add-email.svg

<?xml version="1.0" encoding="UTF-8"?>
<svg xmlns="http://www.w3.org/2000/svg" xmlns:xlink="http://www.w3.org/1999/xlink" width="32" height="32" viewBox="0 0 32 32" version="1.1">
<g id="surface1">
<path style=" stroke:none;fill-rule:nonzero;fill:rgb(0%,0%,0%);fill-opacity:1;" d="M 16 1.921875 C 15.417969 1.921875 14.296875 2.042969 13.375 2.832031 C 13.199219 2.964844 12.753906 3.351562 11.84375 4.140625 L 11.449219 4.480469 L 7.039062 4.480469 C 6.6875 4.480469 6.398438 4.765625 6.398438 5.121094 L 6.398438 8.9375 C 4.199219 10.882812 2.332031 12.546875 2.152344 12.707031 L 7.679688 17.015625 L 7.679688 5.761719 L 24.320312 5.761719 L 24.320312 17.015625 L 29.847656 12.707031 C 29.667969 12.546875 27.800781 10.882812 25.601562 8.9375 L 25.601562 5.121094 C 25.601562 4.765625 25.3125 4.480469 24.960938 4.480469 L 20.515625 4.480469 C 19.738281 3.78125 18.886719 3.03125 18.65625 2.859375 C 17.703125 2.042969 16.582031 1.921875 16 1.921875 Z M 10.238281 8.960938 C 10.007812 8.957031 9.792969 9.078125 9.679688 9.277344 C 9.5625 9.476562 9.5625 9.722656 9.679688 9.921875 C 9.792969 10.121094 10.007812 10.242188 10.238281 10.238281 L 21.761719 10.238281 C 21.992188 10.242188 22.207031 10.121094 22.320312 9.921875 C 22.4375 9.722656 22.4375 9.476562 22.320312 9.277344 C 22.207031 9.078125 21.992188 8.957031 21.761719 8.960938 Z M 10.238281 12.160156 C 10.007812 12.15625 9.792969 12.277344 9.679688 12.476562 C 9.5625 12.675781 9.5625 12.921875 9.679688 13.121094 C 9.792969 13.320312 10.007812 13.441406 10.238281 13.441406 L 17.28125 13.441406 C 17.511719 13.441406 17.726562 13.320312 17.84375 13.121094 C 17.957031 12.921875 17.957031 12.675781 17.84375 12.476562 C 17.726562 12.277344 17.511719 12.15625 17.28125 12.160156 Z M 30.078125 14.078125 L 22.371094 20.09375 C 21.929688 20.355469 21.507812 20.667969 21.125 21.046875 C 19.488281 19.753906 18.03125 18.605469 17.839844 18.449219 C 17.140625 17.890625 16.386719 17.804688 16 17.804688 C 15.839844 17.804688 14.996094 17.839844 14.140625 18.464844 C 13.550781 18.902344 6.59375 24.3125 2.855469 27.222656 C 2.503906 27.496094 2.195312 27.734375 1.921875 27.949219 L 1.921875 29.441406 C 1.921875 29.792969 2.207031 30.078125 2.558594 30.078125 L 21.035156 30.078125 C 21.050781 30.097656 21.066406 30.117188 21.082031 30.132812 C 23.570312 32.621094 27.644531 32.621094 30.132812 30.132812 C 32.621094 27.644531 32.621094 23.570312 30.132812 21.082031 C 30.117188 21.066406 30.097656 21.050781 30.078125 21.035156 Z M 1.921875 14.167969 L 1.921875 26.328125 C 1.972656 26.289062 2.019531 26.25 2.070312 26.210938 C 4.292969 24.480469 7.34375 22.105469 9.726562 20.257812 Z M 25.609375 20.492188 C 26.917969 20.492188 28.234375 20.992188 29.230469 21.988281 C 31.21875 23.980469 31.21875 27.238281 29.230469 29.230469 C 27.238281 31.21875 23.980469 31.21875 21.988281 29.230469 C 19.996094 27.238281 19.996094 23.980469 21.988281 21.988281 C 22.984375 20.992188 24.296875 20.492188 25.609375 20.492188 Z M 25.609375 21.804688 C 25.246094 21.804688 24.972656 22.078125 24.972656 22.441406 L 24.972656 24.972656 L 22.441406 24.972656 C 22.078125 24.972656 21.804688 25.246094 21.804688 25.609375 C 21.804688 25.96875 22.078125 26.242188 22.441406 26.242188 L 24.972656 26.242188 L 24.972656 28.777344 C 24.972656 29.136719 25.246094 29.410156 25.609375 29.410156 C 25.789062 29.410156 25.96875 29.320312 26.058594 29.230469 C 26.152344 29.136719 26.242188 28.957031 26.242188 28.777344 L 26.242188 26.242188 L 28.777344 26.242188 C 28.957031 26.242188 29.136719 26.148438 29.230469 26.058594 C 29.320312 25.96875 29.410156 25.789062 29.410156 25.609375 C 29.410156 25.246094 29.136719 24.972656 28.777344 24.972656 L 26.242188 24.972656 L 26.242188 22.441406 C 26.242188 22.078125 25.96875 21.804688 25.609375 21.804688 Z M 25.609375 21.804688 "/>
</g>
</svg>

<svg role="img" viewBox="0 0 32 32" xmlns="http://www.w3.org/2000/svg"><path d="M16 1.922c-.582 0-1.703.121-2.625.91-.176.133-.621.52-1.531 1.309l-.395.34H7.04a.641.641 0 0 0-.64.64v3.816a1627 1627 0 0 0-4.247 3.77l5.528 4.309V5.762h16.64v11.254l5.528-4.309a1627 1627 0 0 0-4.246-3.77V5.122c0-.355-.29-.64-.641-.64h-4.445c-.778-.7-1.63-1.45-1.86-1.622-.953-.816-2.074-.937-2.656-.937M10.238 8.96a.63.63 0 0 0-.558.316.635.635 0 0 0 0 .645c.113.2.328.32.558.316h11.524a.63.63 0 0 0 .558-.316.635.635 0 0 0 0-.645.63.63 0 0 0-.558-.316Zm0 3.2a.63.63 0 0 0-.558.316.641.641 0 0 0 .559.965h7.042c.23 0 .446-.122.563-.32a.654.654 0 0 0 0-.645.64.64 0 0 0-.563-.317Zm19.84 1.917-7.707 6.016a6.399 6.399 0 0 0-1.246.953c-1.637-1.293-3.094-2.442-3.285-2.598a2.972 2.972 0 0 0-1.84-.644c-.16 0-1.004.035-1.86.66-.59.437-7.546 5.848-11.285 8.758-.351.273-.66.511-.933.726v1.492c0 .352.285.637.637.637h18.476c.016.02.031.04.047.055 2.488 2.488 6.563 2.488 9.05 0 2.49-2.488 2.49-6.563 0-9.051-.015-.016-.034-.031-.054-.047Zm-28.156.09v12.16l.148-.117c2.223-1.73 5.274-4.106 7.657-5.953Zm23.687 6.324c1.309 0 2.625.5 3.621 1.496 1.989 1.992 1.989 5.25 0 7.242-1.992 1.989-5.25 1.989-7.242 0a5.135 5.135 0 0 1 0-7.242 5.107 5.107 0 0 1 3.621-1.496m0 1.313a.622.622 0 0 0-.636.636v2.532H22.44a.622.622 0 0 0-.636.636c0 .36.273.633.636.633h2.532v2.535c0 .36.273.633.636.633.18 0 .36-.09.45-.18a.688.688 0 0 0 .183-.453v-2.535h2.535a.71.71 0 0 0 .453-.183c.09-.09.18-.27.18-.45a.621.621 0 0 0-.633-.636h-2.535V22.44a.621.621 0 0 0-.633-.636m0 0" style="stroke:none;fill-rule:nonzero;fill:rgb(0%,0%,0%);fill-opacity:1"/></svg>
